azure-icons/web-48-API-Connections.svg

<svg xmlns="http://www.w3.org/2000/svg" width="18" height="18"><defs><linearGradient id="a" x1="11.95" y1="15" x2="11.95" y2="6.49" gradientUnits="userSpaceOnUse"><stop offset="0" stop-color="#5e9624"/><stop offset=".01" stop-color="#5e9724"/><stop offset=".35" stop-color="#6cab29"/><stop offset=".68" stop-color="#73b82c"/><stop offset="1" stop-color="#76bc2d"/></linearGradient><linearGradient id="b" x1="6.05" y1="11.51" x2="6.05" y2="3" gradientUnits="userSpaceOnUse"><stop offset="0" stop-color="#0078d4"/><stop offset=".82" stop-color="#5ea0ef"/></linearGradient><linearGradient id="c" x1="10.51" y1="6.82" x2="7.93" y2="10.5" gradientUnits="userSpaceOnUse"><stop offset="0" stop-color="#005ba1"/><stop offset=".14" stop-color="#035da3" stop-opacity=".97"/><stop offset=".3" stop-color="#0b63aa" stop-opacity=".88"/><stop offset=".47" stop-color="#196eb6" stop-opacity=".73"/><stop offset=".65" stop-color="#2d7cc6" stop-opacity=".52"/><stop offset=".84" stop-color="#468edb" stop-opacity=".26"/><stop offset="1" stop-color="#5ea0ef" stop-opacity="0"/></linearGradient></defs><path d="M14.18 6.49H9.65A4 4 0 005.9 10h1.42a2.49 2.49 0 012.33-2h4.53a2.59 2.59 0 012.44 2.71 2.6 2.6 0 01-2.44 2.72H9.65a2.49 2.49 0 01-2.33-2H5.9A4 4 0 009.65 15h4.53A4.06 4.06 0 0018 10.74a4.06 4.06 0 00-3.82-4.25z" fill="url(#a)"/><path d="M8.35 10H3.82a2.59 2.59 0 01-2.44-2.74 2.6 2.6 0 012.44-2.72h4.53a2.49 2.49 0 012.33 2h1.42A4 4 0 008.35 3H3.82A4.06 4.06 0 000 7.26a4.06 4.06 0 003.82 4.25h4.53A4 4 0 0012.1 8h-1.42a2.49 2.49 0 01-2.33 2z" fill="url(#b)"/><path d="M8.35 10h-3v1.54h3A4 4 0 0012.1 8h-1.42a2.49 2.49 0 01-2.33 2z" fill="url(#c)"/></svg>

<svg id="fe366099-a2b1-426e-bf14-5fac3af2633b" 
    xmlns="http://www.w3.org/2000/svg" width="18" height="18" viewBox="0 0 18 18">
    <defs>
        <linearGradient id="bd83f169-106c-4888-8974-dd361ca21824" x1="11.95" y1="15" x2="11.95" y2="6.49" gradientUnits="userSpaceOnUse">
            <stop offset="0" stop-color="#5e9624"/>
            <stop offset="0.01" stop-color="#5e9724"/>
            <stop offset="0.35" stop-color="#6cab29"/>
            <stop offset="0.68" stop-color="#73b82c"/>
            <stop offset="1" stop-color="#76bc2d"/>
        </linearGradient>
        <linearGradient id="a2bc33e9-95d3-477a-a9c0-f3c4f4d56e28" x1="6.05" y1="11.51" x2="6.05" y2="3" gradientUnits="userSpaceOnUse">
            <stop offset="0" stop-color="#0078d4"/>
            <stop offset="0.82" stop-color="#5ea0ef"/>
        </linearGradient>
        <linearGradient id="a2ba13f3-861a-4e5e-98fb-c7a2c224cdb1" x1="10.51" y1="6.82" x2="7.93" y2="10.5" gradientUnits="userSpaceOnUse">
            <stop offset="0" stop-color="#005ba1"/>
            <stop offset="0.14" stop-color="#035da3" stop-opacity="0.97"/>
            <stop offset="0.3" stop-color="#0b63aa" stop-opacity="0.88"/>
            <stop offset="0.47" stop-color="#196eb6" stop-opacity="0.73"/>
            <stop offset="0.65" stop-color="#2d7cc6" stop-opacity="0.52"/>
            <stop offset="0.84" stop-color="#468edb" stop-opacity="0.26"/>
            <stop offset="1" stop-color="#5ea0ef" stop-opacity="0"/>
        </linearGradient>
    </defs>
    <title>Icon-web-48</title>
    <path d="M14.18,6.49H9.65A4,4,0,0,0,5.9,10H7.32A2.49,2.49,0,0,1,9.65,8h4.53a2.59,2.59,0,0,1,2.44,2.71,2.6,2.6,0,0,1-2.44,2.72H9.65a2.49,2.49,0,0,1-2.33-2H5.9A4,4,0,0,0,9.65,15h4.53A4.06,4.06,0,0,0,18,10.74,4.06,4.06,0,0,0,14.18,6.49Z" fill="url(#bd83f169-106c-4888-8974-dd361ca21824)"/>
    <path d="M8.35,10H3.82A2.59,2.59,0,0,1,1.38,7.26,2.6,2.6,0,0,1,3.82,4.54H8.35a2.49,2.49,0,0,1,2.33,2H12.1A4,4,0,0,0,8.35,3H3.82A4.06,4.06,0,0,0,0,7.26a4.06,4.06,0,0,0,3.82,4.25H8.35A4,4,0,0,0,12.1,8H10.68A2.49,2.49,0,0,1,8.35,10Z" fill="url(#a2bc33e9-95d3-477a-a9c0-f3c4f4d56e28)"/>
    <path d="M8.35,10h-3v1.54h3A4,4,0,0,0,12.1,8H10.68A2.49,2.49,0,0,1,8.35,10Z" fill="url(#a2ba13f3-861a-4e5e-98fb-c7a2c224cdb1)"/>
</svg>
